digitransit-component/packages/digitransit-component-icon/src/assets/mode_digi_citybike.svg

<svg width="28" height="28" viewBox="364.958 236 28 28">
 <path d="M390.158 264h-22.4a2.8 2.8 0 0 1-2.8-2.8v-22.4a2.8 2.8 0 0 1 2.8-2.8h22.4a2.8 2.8 0 0 1 2.8 2.8v22.4a2.8 2.8 0 0 1-2.8 2.8"/>
 <path fill="#333" d="M371.176 255.399c-1.511-.625-2.245-2.393-1.636-3.948.449-1.151 1.532-1.903 2.737-1.903.424 0 .844.093 1.229.277l.719-.677c-1.841-1.107-4.206-.47-5.283 1.425-1.076 1.894-.457 4.328 1.384 5.436 1.841 1.109 4.206.47 5.284-1.424a4 4 0 0 0 .371-.886l-.966.017c-.608 1.555-2.326 2.309-3.839 1.683M387.958 249.841a3.82 3.82 0 0 0-2.784-1.237q-.319 0-.633.055l.434.902h.199c1.634.013 2.947 1.386 2.935 3.068-.013 1.681-1.346 3.032-2.98 3.019s-2.948-1.385-2.935-3.066a3.1 3.1 0 0 1 .74-1.991l-.434-.894c-1.547 1.512-1.611 4.026-.142 5.617a3.785 3.785 0 0 0 5.459.145c1.547-1.512 1.61-4.026.141-5.618"/>
 <path fill="#333" d="m382.685 248.123.227.829-.003.001q.01.044.029.081l.004.008.005.016 1.414 2.904v-.003l.404.829a.45.45 0 0 0 .627.171.48.48 0 0 0 .191-.592l-1.808-3.712h-.002l-.524-1.89-.163-.591a.4.4 0 0 1 .187-.456.37.37 0 0 1 .507.161.4.4 0 0 1 .03.075l.322 1.166a.46.46 0 0 0 .416.272h1.727a.45.45 0 0 0 .409-.263l.988-2.079a.48.48 0 0 0-.21-.631.45.45 0 0 0-.247-.044l-1.677.18-1.96.205-.25-.926c-.23-.807-1.023-1.3-1.826-1.135l-.482.103a.48.48 0 0 0-.381.514.46.46 0 0 0 .5.42l.047-.008.504-.108a.65.65 0 0 1 .758.47l.267.927a1.31 1.31 0 0 0-.527 1.047c.002.185.023.372.063.552l-4.828 4.103-1.998-5.417q.404-.114.821-.139l.272-.023a.457.457 0 0 0 .473-.441.46.46 0 0 0-.516-.483h-1.335c-.98 0-1.147-.016-1.71-.016-.333 0-.54.122-.54.381 0 .541.686 1.029 1.333 1.029q.163-.002.321-.036l1.155 3.135-3.731 3.533a.48.48 0 0 0-.03.663.46.46 0 0 0 .334.154h.012l4.388-.071a1.3 1.3 0 0 0-.049.361c0 .727.57 1.315 1.277 1.315.706 0 1.279-.588 1.279-1.315v-.002c0-.203-.048-.406-.137-.588zm-9.214 3.971 2.581-2.441.527 1.455.351.932zm4.431 1.716h-.003a.465.465 0 0 1-.458-.471c0-.261.205-.472.458-.472s.458.211.458.472c0 .257-.202.47-.455.471"/>
</svg>

<svg viewBox="364.958 236 28 28" width="28" height="28">
  <path d="M25.1997 28H2.8003C1.25347 28 0 26.7465 0 25.2007V2.8003C0 1.25347 1.25347 0 2.8003 0H25.1997C26.7465 0 28 1.25347 28 2.8003V25.2007C27.999 26.7465 26.7455 28 25.1997 28Z" transform="matrix(1, 0, 0, 1, 364.958099, 235.999985)"></path>
  <path d="M 371.176 255.399 C 369.665 254.774 368.931 253.006 369.54 251.451 C 369.989 250.3 371.072 249.548 372.277 249.548 C 372.701 249.548 373.121 249.641 373.506 249.825 L 374.225 249.148 C 372.384 248.041 370.019 248.678 368.942 250.573 C 367.866 252.467 368.485 254.901 370.326 256.009 C 372.167 257.118 374.532 256.479 375.61 254.585 C 375.767 254.307 375.892 254.01 375.981 253.699 L 375.015 253.716 C 374.407 255.271 372.689 256.025 371.176 255.399 Z" fill="#333" style=""></path>
  <path d="M 387.958 249.841 C 387.233 249.056 386.227 248.61 385.174 248.604 C 384.962 248.604 384.75 248.623 384.541 248.659 L 384.975 249.561 C 385.04 249.561 385.107 249.561 385.174 249.561 C 386.808 249.574 388.121 250.947 388.109 252.629 C 388.096 254.31 386.763 255.661 385.129 255.648 C 383.495 255.636 382.181 254.263 382.194 252.582 C 382.199 251.848 382.462 251.14 382.934 250.591 L 382.5 249.697 C 380.953 251.209 380.889 253.723 382.358 255.314 C 383.828 256.905 386.272 256.97 387.817 255.459 C 389.364 253.947 389.427 251.433 387.958 249.841 Z" fill="#333" style=""></path>
  <path d="M 382.685 248.123 L 382.912 248.952 L 382.909 248.953 C 382.915 248.983 382.926 249.009 382.938 249.034 L 382.942 249.042 C 382.944 249.047 382.945 249.053 382.947 249.058 L 384.361 251.962 L 384.361 251.959 L 384.765 252.788 C 384.892 253.013 385.172 253.089 385.392 252.959 C 385.592 252.84 385.674 252.585 385.583 252.367 L 383.775 248.655 L 383.773 248.655 L 383.249 246.765 L 383.086 246.174 C 383.036 245.995 383.114 245.805 383.273 245.718 C 383.456 245.62 383.684 245.69 383.78 245.879 C 383.793 245.903 383.803 245.928 383.81 245.954 L 384.132 247.12 C 384.207 247.286 384.369 247.392 384.548 247.392 L 386.275 247.392 C 386.449 247.392 386.609 247.289 386.684 247.129 L 387.672 245.05 C 387.782 244.815 387.687 244.534 387.462 244.419 C 387.385 244.382 387.3 244.365 387.215 244.375 L 385.538 244.555 L 383.578 244.76 L 383.328 243.834 C 383.098 243.027 382.305 242.534 381.502 242.699 L 381.02 242.802 C 380.783 242.847 380.619 243.069 380.639 243.316 C 380.665 243.575 380.888 243.762 381.139 243.736 C 381.155 243.734 381.17 243.731 381.186 243.728 L 381.69 243.62 C 382.024 243.549 382.353 243.754 382.448 244.09 L 382.715 245.017 C 382.387 245.26 382.19 245.648 382.188 246.064 C 382.19 246.249 382.211 246.436 382.251 246.616 L 377.423 250.719 L 375.425 245.302 C 375.694 245.225 375.968 245.181 376.246 245.163 L 376.518 245.14 C 376.767 245.153 376.977 244.956 376.991 244.699 C 377.004 244.443 376.812 244.227 376.563 244.212 C 376.533 244.211 376.505 244.212 376.475 244.216 L 375.14 244.216 C 374.16 244.216 373.993 244.2 373.43 244.2 C 373.097 244.2 372.89 244.322 372.89 244.581 C 372.89 245.122 373.576 245.61 374.223 245.61 C 374.332 245.608 374.439 245.597 374.544 245.574 L 375.699 248.709 L 371.968 252.242 C 371.782 252.418 371.768 252.713 371.938 252.905 C 372.024 253.001 372.144 253.057 372.272 253.059 L 372.284 253.059 L 376.672 252.988 C 376.638 253.106 376.623 253.226 376.623 253.349 C 376.623 254.076 377.193 254.664 377.9 254.664 C 378.606 254.664 379.179 254.076 379.179 253.349 L 379.179 253.347 C 379.179 253.144 379.131 252.941 379.042 252.759 L 382.685 248.123 Z M 373.471 252.094 L 376.052 249.653 L 376.579 251.108 L 376.93 252.04 L 373.471 252.094 Z M 377.902 253.81 C 377.9 253.81 377.9 253.81 377.899 253.81 C 377.646 253.81 377.441 253.599 377.441 253.339 C 377.441 253.078 377.646 252.867 377.899 252.867 C 378.152 252.867 378.357 253.078 378.357 253.339 C 378.357 253.596 378.155 253.809 377.902 253.81 Z" fill="#333" style=""></path>
</svg>
